X: 3358
T: AMERICAN BOOT DANCE
%R: hornpipe, shottish
B: James Kerr "Merry Melodies" v.3 p.39 #358
Z: 2016 John Chambers <jc:trillian.mit.edu>
M: C
L: 1/8
K: F
(c>B) |\
(3Acf (3agf e>d^c>d | g>da>d b2a2 |\
(3gag (3fed c>^cd>B | A>c=B>d c2(c>_B) |\
(3Acf (3agf e>d^c>d | g>da>d b2a2 |\
c>=Bc>d e>fa>g | f2a2 f2 :|
|: A2 |\
A>^GA>f e>d^c>B | A>^GA>B A2a2 |\
(3aba e2 (3aba e2 | (3fgf (3efe d2A2 |\
A>^GA>f e>d^c>B | A>^GA>B A2a2 |\
(3aba (3gag (3fgf (3efe | d2f2 d2 :|

%%sep 1 1 500
%%sep 1 1 500

